src/assets/lock_circle.svg

<svg fill="none" height="20" viewBox="0 0 20 20" width="20" xmlns="http://www.w3.org/2000/svg"><rect height="19" rx="9.5" stroke="#d8dee6" width="19" x=".5" y=".5"/><path d="m10 4.89624c.7376.0001 1.4452.29298 1.9668.81445.5215.5217.8154 1.2301.8154 1.96778v.70117h.4112c.4139.00034.75.336.75.75v5.22556c-.0006.4136-.3364.7497-.75.75h-6.38676c-.41389 0-.74948-.3362-.75-.75v-5.22556c0-.41421.33579-.75.75-.75h.41113v-.70117c0-.73775.29284-1.44607.81446-1.96778.52172-.52172 1.22994-.81445 1.96777-.81445zm-2.44336 8.70896h4.88676v-3.72556h-4.88676zm2.44336-7.20896c-.34 0-.66681.13458-.90723.375-.24031.2404-.375.5673-.375.90723v.70117h2.56443v-.70117c0-.33986-.1357-.66684-.376-.90723-.2403-.24017-.5665-.3749-.9062-.375z" fill="#abb2bd"/></svg>

<svg width="20" height="20" viewBox="0 0 20 20" fill="none" xmlns="http://www.w3.org/2000/svg">
<rect x="0.5" y="0.5" width="19" height="19" rx="9.5" stroke="#D8DEE6"/>
<path d="M10 4.89624C10.7376 4.89634 11.4452 5.18922 11.9668 5.71069C12.4883 6.23239 12.7822 6.94079 12.7822 7.67847V8.37964H13.1934C13.6073 8.37998 13.9434 8.71564 13.9434 9.12964V14.3552C13.9428 14.7688 13.607 15.1049 13.1934 15.1052H6.80664C6.39275 15.1052 6.05716 14.769 6.05664 14.3552V9.12964C6.05664 8.71543 6.39243 8.37964 6.80664 8.37964H7.21777V7.67847C7.21777 6.94072 7.51061 6.2324 8.03223 5.71069C8.55395 5.18897 9.26217 4.89624 10 4.89624ZM7.55664 13.6052H12.4434V9.87964H7.55664V13.6052ZM10 6.39624C9.66 6.39624 9.33319 6.53082 9.09277 6.77124C8.85246 7.01164 8.71777 7.33854 8.71777 7.67847V8.37964H11.2822V7.67847C11.2822 7.33861 11.1465 7.01163 10.9062 6.77124C10.6659 6.53107 10.3397 6.39634 10 6.39624Z" fill="#ABB2BD"/>
</svg>
